X:311
T:
R:polska
S:Efter Johan Jakobsson, Halsarve i Fardhem.
O:Gotland, Fardhem
M:3/4
L:1/16
K:A
e'2c'e e'2c'e e'2c'e|efed cdcB B2A2|A,2CE A2ce aecA|E2GB e2fe dcBA|
A,2CE A2ce aecA|E2GB e2fe dcBA|ceAc dfBd ceAc|BdGB A4 A,4:|
|:Acec Bded Acec|E2GB A2ce aecB|Acec Bded Acec|E2GB A4 A,4:|

